symbols/web/login/materialsymbolssharp/login_wght600grad200_24px.svg

<svg xmlns="http://www.w3.org/2000/svg" height="24" width="24"><path d="m9.075 18.325-2.2-2.2 2.6-2.6h-7.75V10.45h7.75l-2.6-2.6 2.2-2.175L15.4 12Zm2.9 3.475v-3.075H19.2V5.275h-7.225V2.2h10.3v19.6Z"/></svg>

<svg xmlns="http://www.w3.org/2000/svg" height="24" width="24"><path d="M9.075 18.325 6.875 16.125 9.475 13.525H1.725V10.45H9.475L6.875 7.85L9.075 5.675L15.4 12ZM11.975 21.8V18.725H19.2V5.275H11.975V2.2H22.275V21.8Z"/></svg>
